X: 12261
T: Fairies' Revels, The
R: jig
M: 6/8
K: Dmajor
|:A|d2 d dcd|B>cd efg|f2 d dcd|CAA ABc|
d2 d dcd|Bcd efg|B2 e cBc|dAA F2:|
|:f|a2 a agf|g>ab Bcd|a2 f dcd|ecA efg|
f2 a dcd|bgd Bdb|a2 f ede|fdd d2:|

